!!!OTL: WENN I ZUM BRUENNLE GEH
!!!ARE: Europa, Mitteleuropa, Deutschland, Schwaben
!!!SCT: E0704
!!!YEM: Copyright 1995, estate of Helmut Schaffrath.
**kern
*ICvox
*Ivox
*M3/4
*k[b-]
*F:
=1
{4a
4a
4a
=2
4.a
8g
4g}
=3
{4b-
4b-
4b-
=4
4.b-
8a
4a}
=5
{4cc
8dd
8cc
8b-
8a
=6
4.dd
8dd
4cc}
=7
{4a
4a
8cc
8b-
=8
2g
4r}
=9
{4g
8g
8dd
8cc
8b-
=10
4.b-
8a
4b-}
=11
{4b-
4ff
8ee
8dd
=12
4.cc
8b-
4a}
=13
{4f
4f
8g
8b-
=14
2a
4r}
=15
{4cc
8cc
8dd
8cc
8b-
=16
2a
4r}
==
!!!AGN: Liebes - Lied, Leid, Klage
!!!ONB: ESAC (Essen Associative Code) Database: ERK2
!!!AMT: simple triple
!!!AIN: vox
!!!EED: Helmut Schaffrath
!!!EEV: 1.0
*-
